src/assets/coins/pangolin.svg

<svg width="2021" height="1893" fill="none" xmlns="http://www.w3.org/2000/svg"><path d="M1818.13.449 1548.52.235l59.76 190.039 20.16 64.118-52.88 39.525-454.96 340.418 402.01 301.746L2000 578.947 1818.13.449Z" fill="#FFC800"/><path d="m424.051 293.228-52.798-39.657 20.231-64.012L451.248.213 182.62 0 0 578.286l476.795 357.878L879.35 634.952 424.051 293.228Z" fill="#E1AA00"/><path d="M953.823 306.45 545.875.366l-68.847 217.985L953.823 576.23l.259-.213v-269.62l-.259.053Z" fill="#E1AA00"/><path d="M1454.17.677 1045.68 306.28v269.62l477.08-356.92L1454.17.677Z" fill="#FFC800"/><path d="m529.644 1011.18-51.609 38.67-1.007 3.14 476.795 357.88.259-.21V693.623L529.644 1011.18Z" fill="#E1AA00"/><path d="m1521.6 1050.08-51.87-38.97-423.51-317.872-.54.4v717.032l477.08-356.92-1.16-3.67Z" fill="#FFC800"/><path d="m953.746 1525.48-52.796-39.64-335.308-251.62-88.614 280.63 476.795 357.88.259-.21v-347.31l-.336.27Z" fill="#E1AA00"/><path d="m1434.41 1234.4-336.19 251.52-52.54 39.31v347.31l477.08-356.92-88.35-281.22Z" fill="#FFC800"/></svg>

<svg width="2021" height="1893" viewBox="0 0 2021 1893" fill="none" xmlns="http://www.w3.org/2000/svg">
<path d="M1818.13 0.448975L1548.52 0.235352L1608.28 190.274L1628.44 254.392L1575.56 293.917L1120.6 634.335L1522.61 936.081L2000 578.947L1818.13 0.448975Z" fill="#FFC800"/>
<path d="M424.051 293.228L371.253 253.571L391.484 189.559L451.248 0.212811L182.62 0L0 578.286L476.795 936.164L879.35 634.952L424.051 293.228Z" fill="#E1AA00"/>
<path d="M953.823 306.45L545.875 0.366211L477.028 218.351L953.823 576.23L954.082 576.017V306.397L953.823 306.45Z" fill="#E1AA00"/>
<path d="M1454.17 0.676758L1045.68 306.281V575.901L1522.76 218.981L1454.17 0.676758Z" fill="#FFC800"/>
<path d="M529.644 1011.18L478.035 1049.85L477.028 1052.99L953.823 1410.87L954.082 1410.66V693.623L529.644 1011.18Z" fill="#E1AA00"/>
<path d="M1521.6 1050.08L1469.73 1011.11L1046.22 693.238L1045.68 693.638V1410.67L1522.76 1053.75L1521.6 1050.08Z" fill="#FFC800"/>
<path d="M953.746 1525.48L900.95 1485.84L565.642 1234.22L477.028 1514.85L953.823 1872.73L954.082 1872.52V1525.21L953.746 1525.48Z" fill="#E1AA00"/>
<path d="M1434.41 1234.4L1098.22 1485.92L1045.68 1525.23V1872.54L1522.76 1515.62L1434.41 1234.4Z" fill="#FFC800"/>
</svg>
